X:1
T:Perche duo baci
T:Perche duo baci
T:Giovanni Ghizzolo
C:Giovanni Ghizzolo
%%score 1 { 2 | 3 }
L:1/8
Q:1/4=120
M:4/4
K:F
V:1 treble nm="Soprano" snm="S"
V:2 treble nm="MusicXML Part"
V:3 bass 
V:1
"^Source: Madrigali et Arie---Libro primo---Venetia---A.Raverij---1609.\nEditor: Anré Vierendeels (07/05/07)\nContinuo: André Vierendeels" z =BBB B3 c/d/ | %1
w: Per- che duo ba- * *|
 =B2 cc c2 _B2 | c4 c4 | z2 c4 BA | GEFG A4- | A6 D2 | E8 |[M:2/4] D4 :: z2 d2- | %9
w: ci sol mi die cos-|te- i|E- bro d'a-|mor died'il _ miocor _|_ a|le-|i.|O|
[M:4/4] d2 A2 B2 AG | A2 A2 c4- | c2 EF G3 F | F2 F2 d4- | d2 ^FG A3 G | G4 G4 | z4 G4 | %16
w: _ bel cam- bio d'a-|mo- re Dar|_ per duo ba- ci|co- re, Dar|_ per duo ba- ci|co- re|Deh|
 A/G/A/G/ A/G/A/B/ c4- | c2 F2 F2 FF | G4 G4 | de/f/ cd/e/ Bc/d/ AB/c/ | B6 AG | A8- | A2 E2 E4 | %23
w: _ _ _ _ _ _ _ _ _|* tu giu- di- ce|pi- o|Rom- * * * * * * * * * * *|* p'il con-|trat-|* to ri-|
 D4 z EFG | A2 A2 z ABc | d2 d2 z dde | f6 e2 | e8 | d8 | z2 A2 A4 | z2 c4 BA | cFFG A2 A2 | %32
w: o do- ve'il suo'in-|gan- no do- ve'il suo'in-|gan- no e'l mio si|gra- ve|dan-|no|ch'an ch'io|ren- der- o'a|lei se tu'l con- sen- ti|
 z GGG G3 A/B/ | G4 z ccc | c3 d/_e/ c4 | z2 Bc d4- | d2 B/A/B/c/ A4 | G8 |] %38
w: per duo ge- la- * *|ti per duo ge-|la- * * ti|mil- le ba-|* ci'ar- * * * den-|ti.|
V:2
 [DG=B]8 | [D=B]2 [EGc]2 [FA]2 [DG]2 | [EGc]4 G2 A2- | A4 [EG]4 | [EG]4 [Ac]4 | F4 F4 | D4 ^C4 | %7
[M:2/4] [D^FA]4 :: [DFB]4 |[M:4/4] [FA]4 [DB]4 | [FA]8 | [EG]8 | [FAc]4 [DFB]4 | [DA]4 [D^FA]4 | %14
 [DG=B]8 | [EGc]8 | [FAc]8 | [DF]6 [CF]2 | [EG]8 | G2 E2 D2 E2 | F2 G2 D2 C2 | D4 E4 | D4 ^C4 | %23
 [D^FA]4 E2 DE | [CF]4 [DF]2 D2 | F4 [DF]4 | A4 B4 | [Ad]4 [E^c]4 | [^FA]8 | [FAc]8 | [FAc]8 | %31
 [FAc]8 | [EGc]8 | [FAc]4 [FAc]4 | [FAc]8 | [GB]8 | [FA]4 G2 ^F/E/D/C/ | [=B,D]8 |] %38
V:3
 G,4 G,,4 | G,2 E,2 F,2 G,2 | C,4 C,2 F,2- | F,2 E,D, C,4 | C,C,D,E, F,A,,B,,C, | D,A,B,C D2 B,2 | %6
 A,4 A,,4 |[M:2/4] D,4 :: B,,4 |[M:4/4] F,4 G,4 | F,6 A,,B,, | C,8 | F,,4 B,,2 A,,G,, | D,4 D,,4 | %14
 G,,8 | C,8 | F,,8 | B,,4 B,,2 A,,2 | C,4 C,4 | G,,2 A,,2 B,,2 C,2 | D,2 E,2 F,2 E,2 | %21
 D,2 C,B,, A,,2 G,,2 | A,,8 | D,4 A,,2 D,C, | F,4 D,2 G,F, | B,4 z B,B,C | D2 D,2 G,4 | A,4 A,,4 | %28
 D,8 | F,4 F,,4 | F,,8- | F,,8 | C,8 | C,4 F,,4 | F,,8 | %35
 G,,3 A,, B,,2"^Notes: original keys: Ut 1st, Fa 4rth\n            editorial accidentals above the staff" G,,2 | %36
 D,4 D,,4 | G,,8 |] %38

